components/Common/Svg/svgs/attachment.svg

<svg width="24" height="24" viewBox="0 0 24 24" fill="none" xmlns="http://www.w3.org/2000/svg">
<path fill-rule="evenodd" clip-rule="evenodd" d="M14.8866 4.12394C13.1772 2.83733 10.8228 2.83733 9.11341 4.12394C7.90862 5.03077 7.2 6.45105 7.2 7.95898V16.4422C7.2 16.7736 6.93137 17.0422 6.6 17.0422C6.26863 17.0422 6 16.7736 6 16.4422V7.95898C6 6.07407 6.88577 4.29872 8.39176 3.16518C10.5284 1.55692 13.4716 1.55692 15.6082 3.16518C17.1142 4.29872 18 6.07407 18 7.95898V18.1731C18 19.6214 17.2413 20.964 16.0005 21.7111C14.787 22.4418 13.2838 22.4996 12.0178 21.8644L11.8456 21.7779C10.3311 21.018 9.375 19.4685 9.375 17.7741V9.56393C9.375 8.57532 9.90392 7.66227 10.7615 7.17046L10.9367 7.06998C11.8158 6.56588 12.9138 6.65159 13.704 7.28598C14.2863 7.75347 14.625 8.45986 14.625 9.20657V16.4422C14.625 16.7736 14.3564 17.0422 14.025 17.0422C13.6936 17.0422 13.425 16.7736 13.425 16.4422V9.20657C13.425 8.82366 13.2513 8.46143 12.9527 8.22172C12.5475 7.89641 11.9845 7.85245 11.5337 8.11095L11.3585 8.21143C10.8739 8.48934 10.575 9.00529 10.575 9.56393V17.7741C10.575 19.0146 11.275 20.149 12.3838 20.7054L12.556 20.7918C13.4541 21.2425 14.5206 21.2015 15.3815 20.6831C16.2617 20.153 16.8 19.2006 16.8 18.1731V7.95898C16.8 6.45105 16.0914 5.03077 14.8866 4.12394Z" fill="#161616"/>
</svg>

<svg width="24" height="24" viewBox="0 0 24 24" fill="none" xmlns="http://www.w3.org/2000/svg"><path fill-rule="evenodd" clip-rule="evenodd" d="M14.887 4.124A4.8 4.8 0 0 0 7.2 7.959v8.483a.6.6 0 1 1-1.2 0V7.96a6 6 0 0 1 12 0v10.214a4.13 4.13 0 0 1-5.982 3.691l-.172-.086a4.48 4.48 0 0 1-2.471-4.004v-8.21a2.76 2.76 0 0 1 1.386-2.394l.176-.1a2.463 2.463 0 0 1 3.688 2.137v7.235a.6.6 0 1 1-1.2 0V9.207a1.263 1.263 0 0 0-1.891-1.096l-.176.1a1.56 1.56 0 0 0-.783 1.353v8.21c0 1.24.7 2.375 1.809 2.931l.172.087a2.93 2.93 0 0 0 4.244-2.619V7.96a4.8 4.8 0 0 0-1.913-3.835Z" fill="#161616"/></svg>
